_site/images/resources-page/information-escrow-image.svg

<svg fill="none" height="333" viewBox="0 0 432 333" width="432" xmlns="http://www.w3.org/2000/svg"><path d="m415.621.0839844h-399.2419c-9.04591 0-16.3791 7.4027956-16.3791 16.5346156v299.6894c0 9.132 7.33319 16.535 16.3791 16.535h399.2419c9.046 0 16.379-7.403 16.379-16.535v-299.6894c0-9.13182-7.333-16.5346156-16.379-16.5346156z" fill="#eff5fa"/><path d="m200.929 89.9207h-90.714v123.1543h90.714z" fill="#1c3c55"/><path d="m185.714 111.294h-90.714v123.155h90.714z" fill="#1c3c55"/><path d="m337.849 79.7427h-212.423v156.2903h212.423z" fill="#feca55"/><path d="m230.396 194.467c-1.118-.9-2.586-1.247-3.993-.945-10.266 2.138-20.964-.033-29.565-6.001-1.63-1.124-3.79-1.124-5.419 0-8.601 5.968-19.3 8.139-29.566 6.001-1.406-.302-2.874.045-3.993.945-1.117.9-1.763 2.255-1.758 3.685v35.201c-.009 13.745 6.666 26.647 17.92 34.634l17.349 12.285c1.651 1.168 3.864 1.168 5.514 0l17.35-12.285c11.253-7.987 17.929-20.889 17.92-34.634v-35.201c.005-1.43-.642-2.785-1.759-3.685zm-7.516 38.044c.008 10.757-5.222 20.854-14.04 27.108l-14.712 10.415-14.711-10.415c-8.818-6.254-14.048-16.351-14.041-27.108v-29.961c10.046.854 20.108-1.459 28.752-6.61 8.645 5.151 18.706 7.464 28.752 6.61zm-21.294-11.035-12.744 12.918-4.216-4.306c-1.857-1.876-4.869-1.876-6.727 0-1.857 1.876-1.857 4.918 0 6.794l7.58 7.656c.89.906 2.1 1.415 3.363 1.415 1.264 0 2.474-.509 3.364-1.415l16.296-16.316c1.858-1.876 1.858-4.918 0-6.794-1.857-1.877-4.869-1.877-6.727 0z" fill="#1c3c55"/><path d="m189.232 107.336h-63.806v-37.093c0-4.5235 3.633-8.1424 8.174-8.1424h47.571c4.542 0 8.175 3.6189 8.175 8.1424v37.093z" fill="#feca55"/><path d="m316.848 109.259h-36.445c-1.589 0-1.589 2.488 0 2.488h36.445c1.589 0 1.589-2.488 0-2.488z" fill="#fff"/><path d="m316.848 121.247h-36.445c-1.589 0-1.589 2.488 0 2.488h36.445c1.589 0 1.589-2.488 0-2.488z" fill="#fff"/><path d="m189.346 55.8806h-9.764v23.8619h9.764z" fill="#d24a43"/><path d="m173.225 50h-9.764v29.8557h9.764z" fill="#697ccc"/><path d="m109.305 120.568v102.911c0 1.584 2.497 1.584 2.497 0v-102.911c0-1.583-2.497-1.583-2.497 0z" fill="#fff"/></svg>

<svg width="432" height="333" viewBox="0 0 432 333" fill="none" xmlns="http://www.w3.org/2000/svg">
<path d="M415.621 0.0839844H16.3791C7.33319 0.0839844 0 7.48678 0 16.6186V316.308C0 325.44 7.33319 332.843 16.3791 332.843H415.621C424.667 332.843 432 325.44 432 316.308V16.6186C432 7.48678 424.667 0.0839844 415.621 0.0839844Z" fill="#EFF5FA"/>
<path d="M200.929 89.9207H110.215V213.075H200.929V89.9207Z" fill="#1C3C55"/>
<path d="M185.714 111.294H95V234.449H185.714V111.294Z" fill="#1C3C55"/>
<path d="M337.849 79.7427H125.426V236.033H337.849V79.7427Z" fill="#FECA55"/>
<path d="M230.396 194.467C229.278 193.567 227.81 193.22 226.403 193.522C216.137 195.66 205.439 193.489 196.838 187.521C195.208 186.397 193.048 186.397 191.419 187.521C182.818 193.489 172.119 195.66 161.853 193.522C160.447 193.22 158.979 193.567 157.86 194.467C156.743 195.367 156.097 196.722 156.102 198.152V233.353C156.093 247.098 162.768 260 174.022 267.987L191.371 280.272C193.022 281.44 195.235 281.44 196.885 280.272L214.235 267.987C225.488 260 232.164 247.098 232.155 233.353V198.152C232.16 196.722 231.513 195.367 230.396 194.467ZM222.88 232.511C222.888 243.268 217.658 253.365 208.84 259.619L194.128 270.034L179.417 259.619C170.599 253.365 165.369 243.268 165.376 232.511V202.55C175.422 203.404 185.484 201.091 194.128 195.94C202.773 201.091 212.834 203.404 222.88 202.55V232.511ZM201.586 221.476L188.842 234.394L184.626 230.088C182.769 228.212 179.757 228.212 177.899 230.088C176.042 231.964 176.042 235.006 177.899 236.882L185.479 244.538C186.369 245.444 187.579 245.953 188.842 245.953C190.106 245.953 191.316 245.444 192.206 244.538L208.502 228.222C210.36 226.346 210.36 223.304 208.502 221.428C206.645 219.551 203.633 219.551 201.775 221.428L201.586 221.476Z" fill="#1C3C55"/>
<path d="M189.232 107.336H125.426V70.243C125.426 65.7195 129.059 62.1006 133.6 62.1006H181.171C185.713 62.1006 189.346 65.7195 189.346 70.243V107.336H189.232Z" fill="#FECA55"/>
<path d="M316.848 109.259H280.403C278.814 109.259 278.814 111.747 280.403 111.747H316.848C318.437 111.747 318.437 109.259 316.848 109.259Z" fill="white"/>
<path d="M316.848 121.247H280.403C278.814 121.247 278.814 123.735 280.403 123.735H316.848C318.437 123.735 318.437 121.247 316.848 121.247Z" fill="white"/>
<path d="M189.346 55.8806H179.582V79.7425H189.346V55.8806Z" fill="#D24A43"/>
<path d="M173.225 50H163.461V79.8557H173.225V50Z" fill="#697CCC"/>
<path d="M109.305 120.568V223.479C109.305 225.063 111.802 225.063 111.802 223.479V120.568C111.802 118.985 109.305 118.985 109.305 120.568Z" fill="white"/>
</svg>
